X: 10844
M: 2/4
L: 1/16
K: D
g2 (gf) e2e2 | f2 (fe) d2d2 | c2d2e2f2 | edcB A4 |\
g2 (gf) e2e2 | f2 (fe) d2d2 | c2a2a2^g2 | "^D.C."a6 |]
[K:=f=c]
f2(fg) e2(ef) | d2(de) ^c2A2 | g2(ga) f2(fg) | e2(ef) d4 |\
gfed ^cdcd | efef gaga | bagf gfed | "^D.C."a4 |]



